packages/icons/svg/Fill/music.svg

<svg width="24" height="24" viewBox="0 0 24 24" fill="none" xmlns="http://www.w3.org/2000/svg">
<g id="Icon/Fill/music">
<path id="Mask" fill-rule="evenodd" clip-rule="evenodd" d="M18.9472 14.9922V4.0002C18.9472 3.6972 18.8092 3.4092 18.5732 3.2202C18.3362 3.0302 18.0242 2.9582 17.7302 3.0242L8.75919 5.0172C8.30119 5.1192 7.97519 5.5252 7.97519 5.9932V14.3342C7.53519 14.1342 7.05119 14.0152 6.53619 14.0152C4.61019 14.0152 3.04419 15.5822 3.04419 17.5082C3.04419 19.4332 4.61019 21.0002 6.53619 21.0002C8.46219 21.0002 10.0282 19.4332 10.0282 17.5082C10.0282 17.3292 10.0022 17.1582 9.97519 16.9862V6.7962L16.9472 5.2462V12.3412C16.5072 12.1402 16.0222 12.0222 15.5082 12.0222C13.5822 12.0222 12.0152 13.5882 12.0152 15.5142C12.0152 17.4402 13.5822 19.0062 15.5082 19.0062C17.4332 19.0062 19.0002 17.4402 19.0002 15.5142C19.0002 15.3352 18.9732 15.1642 18.9472 14.9922Z" fill="#000000"/>
</g>
</svg>

<svg fill="none" height="24" viewBox="0 0 24 24" width="24" xmlns="http://www.w3.org/2000/svg"><path clip-rule="evenodd" d="m18.9473 14.9922v-10.992c0-.303-.138-.591-.374-.78-.237-.19-.549-.262-.843-.196l-8.97099 1.993c-.458.102-.784.508-.784.976v8.341c-.44-.2-.924-.319-1.439-.319-1.926 0-3.492 1.567-3.492 3.493 0 1.925 1.566 3.492 3.492 3.492s3.49199-1.567 3.49199-3.492c0-.179-.026-.35-.05299-.522v-10.19l6.97199-1.55v7.095c-.44-.201-.925-.319-1.439-.319-1.926 0-3.493 1.566-3.493 3.492s1.567 3.492 3.493 3.492c1.925 0 3.492-1.566 3.492-3.492 0-.179-.027-.35-.053-.522" fill="#6b7280" fill-rule="evenodd"/></svg>
